**harmony	**harte	**kern	**silbe	**rhyme	**timestamp	**phrase
*M4/4	*M4/4	*ICvox	*	*	*	*
*	*	*VRlead	*	*	*	*
*	*	*Hstimme	*	*	*	*
*C:	*C:	*C:	*	*	*	*
*	*	*M4/4	*	*	*	*
*	*	*clefF4	*	*	*	*
1r;	1r	r;	.	.	0	.
=1	=1	=1	=1	=1	=1	=1
*>Letter>A	*>Letter>A	*>Letter>A	*>Letter>A	*>Letter>A	*>Letter>A	*>Letter>A
*>Label>Intro	*>Label>Intro	*>Label>Intro	*>Label>Intro	*>Label>Intro	*>Label>Intro	*>Label>Intro
1DMm	D:7	1r	.	.	0.604	newline
=2	=2	=2	=2	=2	=2	=2
1GMm	G:7	1r	.	.	2.128	.
=3	=3	=3	=3	=3	=3	=3
1DMm	D:7	1r	.	.	3.652	.
=4	=4	=4	=4	=4	=4	=4
1GMm	G:7	1r	.	.	5.177	.
=5	=5	=5	=5	=5	=5	=5
1DMm	D:7	1r	.	.	6.701	.
=6	=6	=6	=6	=6	=6	=6
1GMm	G:7	1r	.	.	8.225	.
=7	=7	=7	=7	=7	=7	=7
2CM	C:maj	1r	.	.	9.75	newline
2E-d	E-:dim	.	.	.	10.489	.
=8	=8	=8	=8	=8	=8	=8
2Dmm	D:min7	2.r	.	.	11.228	.
2GMm	G:7	.	.	.	11.967	.
.	.	8A	hel-	.	.	.
.	.	8G	-lo	.	.	.
=9	=9	=9	=9	=9	=9	=9
*>Letter>B	*>Letter>B	*>Letter>B	*>Letter>B	*>Letter>B	*>Letter>B	*>Letter>B
*>Label>Verse	*>Label>Verse	*>Label>Verse	*>Label>Verse	*>Label>Verse	*>Label>Verse	*>Label>Verse
1CMM	C:maj7	8G	_	.	12.707	newline
.	.	8r	.	.	.	.
.	.	4r	.	.	.	.
.	.	2r	.	.	.	.
=10	=10	=10	=10	=10	=10	=10
1CMM	C:maj7	8E	dol-	A	14.266	.
.	.	4C	-ly	.	.	.
.	.	8r	.	.	.	.
.	.	4E	this	.	.	.
.	.	4G	is	.	.	.
=11	=11	=11	=11	=11	=11	=11
1Am	A:min	16A	lou-	.	15.826	.
.	.	16A	-is	.	.	.
.	.	8r	.	.	.	.
.	.	4r	.	.	.	.
.	.	2r	.	.	.	.
=12	=12	=12	=12	=12	=12	=12
1Am	A:min	8E	dol-	A	17.385	.
.	.	4C	-ly	.	.	.
.	.	8r	.	.	.	.
.	.	4E	it's	.	.	.
.	.	4G	so	.	.	.
=13	=13	=13	=13	=13	=13	=13
1CMM	C:maj7	4.c	nice	.	18.945	newline
.	.	8c	to	.	.	.
.	.	8c	have	.	.	.
.	.	8c	you	.	.	.
.	.	8r	.	.	.	.
.	.	8c	back	.	.	.
=14	=14	=14	=14	=14	=14	=14
1F#d	F#:dim	8r	.	.	20.475	.
.	.	8B	where	.	.	.
.	.	8r	.	.	.	.
.	.	4.d	you	.	.	.
.	.	8c	be-	.	.	.
.	.	8G	-long	A	.	.
=15	=15	=15	=15	=15	=15	=15
1Dmm	D:min7	1r	.	.	22.005	.
=16	=16	=16	=16	=16	=16	=16
1AMm	A:7(b9)	4r	.	.	23.535	.
.	.	4A	You're	.	.	.
.	.	4A	look	.	.	.
.	.	4A	in	.	.	.
=17	=17	=17	=17	=17	=17	=17
1Dm	D:min	4A	swell	B	25.065	newline
.	.	4r	.	.	.	.
.	.	4r	.	.	.	.
.	.	8F	dol-	A	.	.
.	.	8D	-ly	.	.	.
=18	=18	=18	=18	=18	=18	=18
1AMm	A:7	2r	.	.	26.608	.
.	.	4F	I	.	.	.
.	.	4A	can	.	.	.
=19	=19	=19	=19	=19	=19	=19
1Dm	D:min(b13)	4B-	tell	B	28.152	.
.	.	4r	.	.	.	.
.	.	4r	.	.	.	.
.	.	8F	dol-	A	.	.
.	.	8D	-ly	.	.	.
=20	=20	=20	=20	=20	=20	=20
1Dm	D:min	2r	.	.	29.695	.
.	.	6r	.	.	.	.
.	.	6D	you're	.	.	.
.	.	6A	still	.	.	.
=21	=21	=21	=21	=21	=21	=21
1Dmm	D:min7	8e	glow-	(C	31.239	newline
.	.	8d	-in	c)	.	.
.	.	4r	.	.	.	.
.	.	4e	you're	.	.	.
.	.	4e	still	.	.	.
=22	=22	=22	=22	=22	=22	=22
1GMm	G:7	8e	crow-	(C	32.79	.
.	.	8d	-in	c)	.	.
.	.	4r	.	.	.	.
.	.	4B	you	.	.	.
.	.	4G	still	.	.	.
=23	=23	=23	=23	=23	=23	=23
2CM	C:maj	4.A	goin	C	34.341	.
.	.	8A	strong	A	.	.
2E-d	E-:dim	2r	.	.	35.117	.
=24	=24	=24	=24	=24	=24	=24
2Dmm	D:min7	4r	.	.	35.892	.
.	.	4A	I	.	.	.
2GMm	G:7	4A	feel	.	36.668	.
.	.	4E	the	.	.	.
=25	=25	=25	=25	=25	=25	=25
*>Letter>B2	*>Letter>B2	*>Letter>B2	*>Letter>B2	*>Letter>B2	*>Letter>B2	*>Letter>B2
*>Label>Chorus	*>Label>Chorus	*>Label>Chorus	*>Label>Chorus	*>Label>Chorus	*>Label>Chorus	*>Label>Chorus
1CMM	C:maj7	4G	room	.	37.443	newline
.	.	4r	.	.	.	.
.	.	4r	.	.	.	.
.	.	8E	sway-	(D	.	.
.	.	8C	-in	d)	.	.
=26	=26	=26	=26	=26	=26	=26
1CMM	C:maj7	2r	.	.	38.979	.
.	.	4E	while	.	.	.
.	.	8G	the	.	.	.
.	.	8A	band's	.	.	.
=27	=27	=27	=27	=27	=27	=27
1Am	A:min	2.r	.	.	40.515	.
.	.	8E	play-	(D	.	.
.	.	8C	-in	d)	.	.
=28	=28	=28	=28	=28	=28	=28
1Am	A:min	2r	.	.	42.051	.
.	.	8E	one	.	.	.
.	.	8F	of	.	.	.
.	.	4G	our	.	.	.
=29	=29	=29	=29	=29	=29	=29
1Gmm	G:min7	4d	old	.	43.587	newline
.	.	6r	.	.	.	.
.	.	6d	fav-	.	.	.
.	.	6d	-rite	.	.	.
.	.	4d	songs	A	.	.
=30	=30	=30	=30	=30	=30	=30
1CMm	C:7	4.r	.	.	45.101	.
.	.	8c	from	.	.	.
.	.	4d	way	.	.	.
.	.	4c	back	.	.	.
=31	=31	=31	=31	=31	=31	=31
1FMM	F:maj7	4A	when	E	46.615	.
.	.	4r	.	.	.	.
.	.	4r	.	.	.	.
.	.	8r	.	.	.	.
.	.	8B	so	.	.	.
=32	=32	=32	=32	=32	=32	=32
1EMm	E:7	1r	.	.	48.128	.
=33	=33	=33	=33	=33	=33	=33
1Am	A:min	4r	.	.	49.642	newline
.	.	2c	take	.	.	.
.	.	4A	her	.	.	.
=34	=34	=34	=34	=34	=34	=34
1Emm	E:min7	4G	wrap	F	51.204	.
.	.	4r	.	.	.	.
.	.	8E	fel-	.	.	.
.	.	8G	-las	.	.	.
.	.	4r	.	.	.	.
=35	=35	=35	=35	=35	=35	=35
1Am	A:min	8c	find	.	52.766	.
.	.	8c	her	.	.	.
.	.	8r	.	.	.	.
.	.	8A	an	.	.	.
.	.	4c	emp-	.	.	.
.	.	4B	-ty	.	.	.
=36	=36	=36	=36	=36	=36	=36
1Emm	E:min7	4G	lap	F	54.328	.
.	.	4r	.	.	.	.
.	.	8E	fel-	.	.	.
.	.	8G	-las	.	.	.
.	.	4r	.	.	.	.
=37	=37	=37	=37	=37	=37	=37
1DMm	D:7	8e	dol-	A	55.89	newline
.	.	8e	-ly	.	.	.
.	.	4r	.	.	.	.
.	.	4r	.	.	.	.
.	.	8c	nev-	.	.	.
.	.	8c	-er	.	.	.
=38	=38	=38	=38	=38	=38	=38
1GMm	G:7	4e	go	.	57.446	.
.	.	4c	aw-	.	.	.
.	.	4e	-ay	.	.	.
.	.	4e	a-	.	.	.
=39	=39	=39	=39	=39	=39	=39
2CM	C:maj	4c	-gain	E	59.002	.
.	.	4r	.	.	.	.
2E-d	E-:dim	2r	.	.	59.78	.
=40	=40	=40	=40	=40	=40	=40
2Dmm	D:min7	1r	.	.	60.558	.
2GMm	G:7	.	.	.	61.336	.
=41	=41	=41	=41	=41	=41	=41
*>Letter>B	*>Letter>B	*>Letter>B	*>Letter>B	*>Letter>B	*>Letter>B	*>Letter>B
*>Label>Interlude	*>Label>Interlude	*>Label>Interlude	*>Label>Interlude	*>Label>Interlude	*>Label>Interlude	*>Label>Interlude
1CMM	C:maj7	1r	.	.	62.114	newline
=42	=42	=42	=42	=42	=42	=42
1CMM	C:maj7	1r	.	.	63.68	.
=43	=43	=43	=43	=43	=43	=43
1Am	A:min	1r	.	.	65.247	.
=44	=44	=44	=44	=44	=44	=44
1Am	A:min	1r	.	.	66.813	.
=45	=45	=45	=45	=45	=45	=45
1CMM	C:maj7	1r	.	.	68.379	newline
=46	=46	=46	=46	=46	=46	=46
1F#d	F#:dim	1r	.	.	69.923	.
=47	=47	=47	=47	=47	=47	=47
1Dmm	D:min7	1r	.	.	71.468	.
=48	=48	=48	=48	=48	=48	=48
1AMm	A:7(b9)	1r	.	.	73.012	.
=49	=49	=49	=49	=49	=49	=49
1Dm	D:min	1r	.	.	74.557	newline
=50	=50	=50	=50	=50	=50	=50
1AMm	A:7	1r	.	.	76.143	.
=51	=51	=51	=51	=51	=51	=51
1Dm	D:min(b13)	1r	.	.	77.729	.
=52	=52	=52	=52	=52	=52	=52
1Dm	D:min	1r	.	.	79.315	.
=53	=53	=53	=53	=53	=53	=53
1Dmm	D:min7	1r	.	.	80.902	newline
=54	=54	=54	=54	=54	=54	=54
1GMm	G:7	1r	.	.	82.45	.
=55	=55	=55	=55	=55	=55	=55
2CM	C:maj	1r	.	.	83.998	.
2E-d	E-:dim	.	.	.	84.772	.
=56	=56	=56	=56	=56	=56	=56
2Dmm	D:min7	1r	.	.	85.546	.
2GMm	G:7	.	.	.	86.321	.
=57	=57	=57	=57	=57	=57	=57
*>Letter>B2	*>Letter>B2	*>Letter>B2	*>Letter>B2	*>Letter>B2	*>Letter>B2	*>Letter>B2
*>Label>Interlude	*>Label>Interlude	*>Label>Interlude	*>Label>Interlude	*>Label>Interlude	*>Label>Interlude	*>Label>Interlude
1CMM	C:maj7	1r	.	.	87.095	newline
=58	=58	=58	=58	=58	=58	=58
1CMM	C:maj7	1r	.	.	88.642	.
=59	=59	=59	=59	=59	=59	=59
1Am	A:min	1r	.	.	90.188	.
=60	=60	=60	=60	=60	=60	=60
1Am	A:min	1r	.	.	91.735	.
=61	=61	=61	=61	=61	=61	=61
1Gmm	G:min7	1r	.	.	93.282	newline
=62	=62	=62	=62	=62	=62	=62
1CMm	C:7	1r	.	.	94.79	.
=63	=63	=63	=63	=63	=63	=63
1FMM	F:maj7	1r	.	.	96.297	.
=64	=64	=64	=64	=64	=64	=64
1EMm	E:7	1r	.	.	97.805	.
=65	=65	=65	=65	=65	=65	=65
1Am	A:min	1r	.	.	99.313	newline
=66	=66	=66	=66	=66	=66	=66
1Emm	E:min7	1r	.	.	100.852	.
=67	=67	=67	=67	=67	=67	=67
1Am	A:min	1r	.	.	102.391	.
=68	=68	=68	=68	=68	=68	=68
1Emm	E:min7	1r	.	.	103.931	.
=69	=69	=69	=69	=69	=69	=69
1DMm	D:7	1r	.	.	105.47	newline
=70	=70	=70	=70	=70	=70	=70
1GMm	G:7	1r	.	.	107.05	.
=71	=71	=71	=71	=71	=71	=71
2CM	C:maj	1r	.	.	108.63	.
2E-d	E-:dim	.	.	.	109.42	.
=72	=72	=72	=72	=72	=72	=72
2Dmm	D:min7	4r	.	.	110.21	.
.	.	4A	I	.	.	.
2GMm	G:7	4c	feel	.	111	.
.	.	4B	the	.	.	.
=73	=73	=73	=73	=73	=73	=73
*>Letter>B2	*>Letter>B2	*>Letter>B2	*>Letter>B2	*>Letter>B2	*>Letter>B2	*>Letter>B2
*>Label>Chorus	*>Label>Chorus	*>Label>Chorus	*>Label>Chorus	*>Label>Chorus	*>Label>Chorus	*>Label>Chorus
1CMM	C:maj7	4c	room	.	111.789	newline
.	.	4r	.	.	.	.
.	.	2r	.	.	.	.
=74	=74	=74	=74	=74	=74	=74
1CMM	C:maj7	8c	sway-	(D	113.36	.
.	.	8c	-in	d)	.	.
.	.	4r	.	.	.	.
.	.	4c	while	.	.	.
.	.	4B	the	.	.	.
=75	=75	=75	=75	=75	=75	=75
1Am	A:min	4A	band's	.	114.931	.
.	.	4r	.	.	.	.
.	.	4r	.	.	.	.
.	.	8A	play-	(D	.	.
.	.	8A	-in	d)	.	.
=76	=76	=76	=76	=76	=76	=76
1Am	A:min	2r	.	.	116.502	.
.	.	8E	one	.	.	.
.	.	8F	of	.	.	.
.	.	4G	our	.	.	.
=77	=77	=77	=77	=77	=77	=77
1Gmm	G:min7	4d	old	.	118.073	newline
.	.	6r	.	.	.	.
.	.	6d	fav-	.	.	.
.	.	6d	-rite	.	.	.
.	.	4d	songs	A	.	.
=78	=78	=78	=78	=78	=78	=78
1CMm	C:7	4.r	.	.	119.605	.
.	.	8c	from	.	.	.
.	.	4d	way	.	.	.
.	.	4c	back	.	.	.
=79	=79	=79	=79	=79	=79	=79
1FMM	F:maj7	4A	when	E	121.137	.
.	.	4r	.	.	.	.
.	.	4r	.	.	.	.
.	.	4e	so	.	.	.
=80	=80	=80	=80	=80	=80	=80
1EMm	E:7	1r	.	.	122.669	.
=81	=81	=81	=81	=81	=81	=81
1Am	A:min	4r	.	.	124.201	newline
.	.	2c	gol-	.	.	.
.	.	4A	-ly	.	.	.
=82	=82	=82	=82	=82	=82	=82
1Emm	E:min7	4.G	gee	G	125.737	.
.	.	16E	fel-	.	.	.
.	.	16E	-las	.	.	.
.	.	2r	.	.	.	.
=83	=83	=83	=83	=83	=83	=83
1Am	A:min	8c	have	.	127.274	.
.	.	8A	a	.	.	.
.	.	8c	lit	.	.	.
.	.	8A	tle	.	.	.
.	.	4c	faith	.	.	.
.	.	4A	in	.	.	.
=84	=84	=84	=84	=84	=84	=84
1Emm	E:min7	4.G	me	G	128.811	.
.	.	16E	fel-	.	.	.
.	.	16E	-las	.	.	.
.	.	2r	.	.	.	.
=85	=85	=85	=85	=85	=85	=85
*>Letter>A	*>Letter>A	*>Letter>A	*>Letter>A	*>Letter>A	*>Letter>A	*>Letter>A
*>Label>Outro	*>Label>Outro	*>Label>Outro	*>Label>Outro	*>Label>Outro	*>Label>Outro	*>Label>Outro
1DMm	D:7	8e	dol-	A	130.347	newline
.	.	8e	-ly	.	.	.
.	.	4r	.	.	.	.
.	.	4r	.	.	.	.
.	.	8c	nev-	.	.	.
.	.	8c	-er	.	.	.
=86	=86	=86	=86	=86	=86	=86
1GMm	G:7	8e	go	.	131.873	.
.	.	4c	a-	.	.	.
.	.	8e	-way	D	.	.
.	.	2r	.	.	.	.
=87	=87	=87	=87	=87	=87	=87
1DMm	D:7	8e	prom-	.	133.4	.
.	.	8e	-ise	.	.	.
.	.	4r	.	.	.	.
.	.	4r	.	.	.	.
.	.	8c	that	.	.	.
.	.	8c	you'll	.	.	.
=88	=88	=88	=88	=88	=88	=88
1GMm	G:7	8e	nev-	.	134.926	.
.	.	8c	-er	.	.	.
.	.	8e	go	.	.	.
.	.	8c	a-	.	.	.
.	.	4e	-way	D	.	.
.	.	4r	.	.	.	.
=89	=89	=89	=89	=89	=89	=89
1DMm	D:7	8e	dol-	A	136.452	.
.	.	8e	-ly	.	.	.
.	.	4r	.	.	.	.
.	.	4r	.	.	.	.
.	.	8c	nev-	.	.	.
.	.	8c	-er	.	.	.
=90	=90	=90	=90	=90	=90	=90
1GMm	G:7	8e	go	.	137.978	.
.	.	4c	a-	.	.	.
.	.	8e	-way	D	.	.
.	.	4r	.	.	.	.
.	.	8d	a-	.	.	.
.	.	8c	-gain	E	.	.
=91	=91	=91	=91	=91	=91	=91
4CM	C:maj	1r	.	.	139.504	newline
4CM	C:maj/3	.	.	.	139.886	.
4FM	F:maj	.	.	.	140.267	.
4F#d	F#:dim	.	.	.	140.648	.
=92	=92	=92	=92	=92	=92	=92
4GM	G:sus4(b7)	1r	.	.	141.03	.
4GMm	G:7/b5	.	.	.	141.411	.
2CM	C:maj	.	.	.	141.793	.
1r;	1r	r;	.	.	143.7	.
1r;	1r	r;	.	.	147.775	.
*-	*-	*-	*-	*-	*-	*-
!!!BillboardChartDate: 1964/03/28
!!!BillboardPeak: 1
!!!BillboardWeeksOnChart: 22
!!!COC: Louis Armstrong
!!!ENC: Nathaniel Condit-Schultz
!!!EST: Awating manual error checking and editing.
!!!OTL: Hello, Dolly!
!!!RDF**chordsym: original McGill chord annotation + (implied pitch class set, with bass pitch in first position)
!!!RDF**harmony: **recip + pitch class of root + harmonic quality
!!!RDF**leadinstrument: original McGill primary instrumentation annotation
!!!RDF**phrase: newline = linebreak in original McGill transcription
!!!RDF**timestamp: McGill audio timestamp in seconds
!!!RDT: 2017/01/12/
!!!SampleActualRank: 8
!!!SampleID#: 0650
!!!SampleTargetRank: 8
!!!MBID: 19bdce87-7af7-4098-abdf-380fb5658374
